public/services/service-icon-1.svg

<svg width="47" height="67" viewBox="0 0 47 67" fill="none" xmlns="http://www.w3.org/2000/svg">
    <path d="M5 42.5H10.5H41.5V50.5C41.5 57 34.5 66 24 66C13.5 66 5 57 5 50.5V42.5Z" stroke="#F5F5F5" stroke-width="2"/>
    <path d="M5 31C3.5 31 1 32.4 1 36C1 39.6 3.5 41 5 41" stroke="#F5F5F5" stroke-width="2"/>
    <path d="M42 30C43.5 30 46 31.4 46 35C46 38.6 43.5 40 42 40" stroke="#F5F5F5" stroke-width="2"/>
    <path d="M5 22V49.7156M41.5 50V22" stroke="#F5F5F5" stroke-width="2"/>
    <path d="M21 47C23.8 47 24 42.5 24 40C24 40 24.0259 47 27 47H38C37.5 44.5 36 39 33 39H15C12.2 39 10.3333 44.3333 10 47H21Z" fill="#595959" stroke="#F5F5F5" stroke-width="2"/>
    <path d="M5.00006 23C7.00006 15.8 15.0867 12.5 19.0867 12.5H27.0854H27.0867C31.0872 12.5008 39.5002 15.8008 41.5 23C41.5 12 43.0867 7 33.5867 7H13.087C3.58704 7 5.00006 12 5.00006 23Z" fill="#FAEFB7"/>
    <path d="M27.0854 12.5H27.0867M27.0867 12.5C31.0872 12.5008 39.5002 15.8008 41.5 23C41.5 12 43.0867 7 33.5867 7H13.087C3.58704 7 5.00006 12 5.00006 23C7.00006 15.8 15.0867 12.5 19.0867 12.5H27.0867Z" stroke="#F5F5F5" stroke-width="2"/>
    <rect x="13" y="1" width="20" height="11" rx="5.5" fill="#FAEFB7" stroke="#F5F5F5" stroke-width="2"/>
</svg>

<?xml version="1.0" encoding="utf-8"?>
<!-- Generator: Adobe Illustrator 27.9.0, SVG Export Plug-In . SVG Version: 6.00 Build 0)  -->
<svg version="1.1" id="Layer_1" xmlns="http://www.w3.org/2000/svg" xmlns:xlink="http://www.w3.org/1999/xlink" x="0px" y="0px"
	 viewBox="0 0 47 67" style="enable-background:new 0 0 47 67;" xml:space="preserve">
<style type="text/css">
	.st0{fill:none;stroke:#F2F2F2;stroke-width:2;}
	.st1{fill:none;stroke:#F5F5F5;stroke-width:2;}
	.st2{fill:#595959;stroke:#F5F5F5;stroke-width:2;}
	.st3{fill:#595959;}
</style>
<path class="st0" d="M5,42.5h5.5h31v8C41.5,57,34.5,66,24,66S5,57,5,50.5V42.5z"/>
<path class="st1" d="M5,31c-1.5,0-4,1.4-4,5s2.5,5,4,5"/>
<path class="st1" d="M42,30c1.5,0,4,1.4,4,5s-2.5,5-4,5"/>
<path class="st1" d="M5,22v27.7 M41.5,50V22"/>
<path class="st2" d="M21,47c2.8,0,3-4.5,3-7c0,0,0,7,3,7h11c-0.5-2.5-2-8-5-8H15c-2.8,0-4.7,5.3-5,8H21z"/>
<path class="st3" d="M5,23c2-7.2,10.1-10.5,14.1-10.5h8h0c4,0,12.4,3.3,14.4,10.5c0-11,1.6-16-7.9-16H13.1C3.6,7,5,12,5,23z"/>
<path class="st1" d="M27.1,12.5L27.1,12.5 M27.1,12.5c4,0,12.4,3.3,14.4,10.5c0-11,1.6-16-7.9-16H13.1C3.6,7,5,12,5,23
	c2-7.2,10.1-10.5,14.1-10.5H27.1z"/>
<path class="st2" d="M18.5,1h9c3,0,5.5,2.5,5.5,5.5l0,0c0,3-2.5,5.5-5.5,5.5h-9c-3,0-5.5-2.5-5.5-5.5l0,0C13,3.5,15.5,1,18.5,1z"/>
</svg>
